mapstyles/mapsforge_peruskartta/mml/Stuli.svg

<svg xmlns="http://www.w3.org/2000/svg" xml:space="preserve" width="610" height="681"><path d="m560 720-2340-470L-750-910 560 720m410 0L2130-780l970 1000L970 720M620 820v1850l450-1000-450-850m0 2600L80 2850l360 1380 180-810" style="fill:#000;fill-opacity:1;fill-rule:nonzero;stroke:none" transform="matrix(.13 0 0 -.13 222.5 567.25)"/><path d="M1667.6 1932.87C1110.77 1794.04 720 1293.88 720 720" style="fill:none;stroke:#000;stroke-width:100;stroke-linecap:butt;stroke-linejoin:miter;stroke-miterlimit:10;stroke-opacity:1;stroke-dasharray:none" transform="matrix(.13 0 0 -.13 222.5 567.25)"/><path d="M1647.81 1935.29c-34.74 995.02-481.15 1930.93-1232.56 2584.12l400-3050" style="fill:#000;fill-opacity:1;fill-rule:nonzero;stroke:none" transform="matrix(.13 0 0 -.13 222.5 567.25)"/><path d="M438.699 4487.05a2692.458 2692.458 0 0 0 6.551-187.64c0-568.07-179.84-1121.57-513.742-1581.14" style="fill:none;stroke:#000;stroke-width:100;stroke-linecap:butt;stroke-linejoin:miter;stroke-miterlimit:10;stroke-opacity:1;stroke-dasharray:none" transform="matrix(.13 0 0 -.13 222.5 567.25)"/><path d="M-81.16 2755.55a2220.169 2220.169 0 0 1-27.332-347.28c0-656.22 290.324-1278.82 793.012-1700.625V3557.64" style="fill:#000;fill-opacity:1;fill-rule:nonzero;stroke:none" transform="matrix(.13 0 0 -.13 222.5 567.25)"/></svg>

<?xml version="1.0" encoding="UTF-8" standalone="no"?>
<!-- Created with Inkscape (http://www.inkscape.org/) -->

<svg
   xmlns:dc="http://purl.org/dc/elements/1.1/"
   xmlns:cc="http://creativecommons.org/ns#"
   xmlns:rdf="http://www.w3.org/1999/02/22-rdf-syntax-ns#"
   xmlns:svg="http://www.w3.org/2000/svg"
   xmlns="http://www.w3.org/2000/svg"
   xmlns:sodipodi="http://sodipodi.sourceforge.net/DTD/sodipodi-0.dtd"
   xmlns:inkscape="http://www.inkscape.org/namespaces/inkscape"
   version="1.1"
   width="610"
   height="681"
   id="svg2"
   xml:space="preserve"
   inkscape:version="0.48.4 r9939"
   sodipodi:docname="Stuli.svg"><sodipodi:namedview
     pagecolor="#ffffff"
     bordercolor="#666666"
     borderopacity="1"
     objecttolerance="10"
     gridtolerance="10"
     guidetolerance="10"
     inkscape:pageopacity="0"
     inkscape:pageshadow="2"
     inkscape:window-width="1920"
     inkscape:window-height="1012"
     id="namedview12"
     showgrid="false"
     inkscape:zoom="0.67425131"
     inkscape:cx="464.84836"
     inkscape:cy="321.20737"
     inkscape:window-x="-8"
     inkscape:window-y="-8"
     inkscape:window-maximized="1"
     inkscape:current-layer="svg2" /><metadata
     id="metadata8"><rdf:RDF><cc:Work
         rdf:about=""><dc:format>image/svg+xml</dc:format><dc:type
           rdf:resource="http://purl.org/dc/dcmitype/StillImage" /></cc:Work></rdf:RDF></metadata><defs
     id="defs6" /><g
     transform="matrix(1.25,0,0,-1.25,222.5,567.25)"
     id="g10"><g
       transform="scale(0.1,0.1)"
       id="g12"><path
         d="M 560,720 -1780,250 -750,-910 560,720 M 970,720 2130,-780 3100,220 970,720 M 620,820 620,2670 1070,1670 620,820 m 0,2600 -540,-570 360,1380 180,-810"
         inkscape:connector-curvature="0"
         id="path14"
         style="fill:#000000;fill-opacity:1;fill-rule:nonzero;stroke:none" /><path
         d="M 1667.6,1932.87 C 1110.77,1794.04 720,1293.88 720,720"
         inkscape:connector-curvature="0"
         id="path16"
         style="fill:none;stroke:#000000;stroke-width:100;stroke-linecap:butt;stroke-linejoin:miter;stroke-miterlimit:10;stroke-opacity:1;stroke-dasharray:none" /><path
         d="m 1647.81,1935.29 c -34.74,995.02 -481.15,1930.93 -1232.56,2584.12 l 400,-3050"
         inkscape:connector-curvature="0"
         id="path18"
         style="fill:#000000;fill-opacity:1;fill-rule:nonzero;stroke:none" /><path
         d="m 438.699,4487.05 c 4.363,-62.45 6.551,-125.04 6.551,-187.64 0,-568.07 -179.84,-1121.57 -513.7422,-1581.14"
         inkscape:connector-curvature="0"
         id="path20"
         style="fill:none;stroke:#000000;stroke-width:100;stroke-linecap:butt;stroke-linejoin:miter;stroke-miterlimit:10;stroke-opacity:1;stroke-dasharray:none" /><path
         d="m -81.1602,2755.55 c -18.1914,-114.86 -27.3318,-230.99 -27.3318,-347.28 0,-656.22 290.324,-1278.82 793.012,-1700.625 l 0,2849.995"
         inkscape:connector-curvature="0"
         id="path22"
         style="fill:#000000;fill-opacity:1;fill-rule:nonzero;stroke:none" /></g></g></svg>
